X:1
T:Title
%%score { ( 1 2 ) | ( 3 4 ) }
L:1/8
M:4/4
K:Eb
V:1 treble nm="Grand Piano"
V:2 treble 
V:3 bass 
V:4 bass 
V:1
 z4 z2[Q:1/4=100] z F | G2 G2 z FGA | [GB]2 [GB]2 [GB]2 [EG]2 | [DF]2 [DF]2 [CE][DF][EG]A | %4
 G6 z F | G2 G2 z FGA | [GB]2 [GB]2 [GB]2 G2 | F2 B2 =A2 c2 |[M:3/4] [B,DB]4 z2 |[M:1/4] B>A | %10
[M:4/4] G6 z2 | [EG]6 z2 | F6 z2 | [EG]6 z2 | B6 z2 | [Ae]6 z2 | B3 G [EG]2 [DF]2 | E6 z2 |] %18
V:2
 z4 z2 E2 | z4 E2 z2 | x8 | x8 | z4 z2 E2 | z4 E2 z2 | x8 | x8 |[M:3/4] x6 |[M:1/4] x2 | %10
[M:4/4] z2 B,>B, B,>[B,GB] [Ac]>[GB] | z2 B,>B, B,2 B>G | z2 B,>B, B,2 [Ac]>[GB] | %13
 z2 B,>B, B,2 G>A | z2 B,>B, B,>[B,GB] [Ac]>[Bd] | z2 C>C C2 e>c | x8 | x8 |] %18
V:3
 z4 z2 G,A, | [E,B,E]2 [E,B,E]2 G,A,EF | [E,E]2 [E,E]2 [E,E]2 [E,B,]2 | %3
 [B,,B,]2 [B,,B,]2 [B,,B,]2 z F | [E,B,E]6 G,A, | [E,B,E]2 [E,B,E]2 G,A,EF | %6
 [E,E]2 [E,E]2 [E,E]2 [E,B,E]2 | [F,B,D]2 [F,D]2 [F,CE]2 [F,=A,E]2 |[M:3/4] B,,4 z2 | %9
[M:1/4][K:treble] G>F |[M:4/4] E6[K:bass] z2 | [E,B,]2 E,>E, E,2[K:treble] G>E | D6[K:bass] z2 | %13
 [E,B,]2 E,>E, E,2[K:treble] E>F | G6[K:bass] z2 | [A,C]2 A,>A, A,2[K:treble] [A,CA]>[A,EA] | %16
 [B,EG]3[K:bass] [B,E] [B,,B,]2 [B,,A,]2 | [E,G,]6 z2 |] %18
V:4
 z4 z2 E,2 | z4 E,2 [E,B,]2 | x8 | z4 z2 [B,,B,]2 | z4 z2 E,2 | z4 E,2 [E,B,]2 | x8 | x8 | %8
[M:3/4] x6 |[M:1/4][K:treble] x2 |[M:4/4] z2[K:bass] E,>E, E,>E, [E,B,]>[E,B,] | x6[K:treble] x2 | %12
 z2[K:bass] B,,>B,, B,,2 [B,,B,]>[B,,B,] | x6[K:treble] x2 | z2[K:bass] E,>E, E,>E, [E,E]>[E,E] | %15
 x6[K:treble] x2 | x3[K:bass] x5 | x8 |] %18

